X:1
T:The Bonny Earl of Murray
M:3/4
L:1/8
K:G
D-E| G3 A B3/2 A/2| G2 D2d-c| B3- AB d| =f4 ed| g3 ee d| e2 g2 DE|\
 G2 d3/2- B/2 A3/2 G/2| E4 de| b3 ae d| e2 g2 DE| G2 d3/2- B/2 A3/2 B/2|\
 G4||
